d1 $ slice 8 ("1 2 1 2 1 0 1 4") $ sound "loopb:21"
    #room 0.8

d2  $ fast 4 $ sound "{k:3 cp:4*2? k:22 ~ k:54, k:11/2 k:4 cp:32 k:75 ~ sn:21?}"
    #legato 4
    #gain 1.3


d3 $ sound "hh:11*42"
    #gain 1
    #legato 0.5
    #room 0.3


d5 $ slow 4 $ striate' 4 1.8 $ sound "pad:3 pad:25?"
    #room 0.5



hush

d3 silence

setcps 0.22